src/assets/images/binland/logo.svg

<svg width="130" height="26" viewBox="0 0 130 26" fill="none" xmlns="http://www.w3.org/2000/svg">
<path d="M8.38012 1.12628C14.9447 1.12628 17.4578 3.77318 17.4578 9.48308C17.4578 10.6673 17.109 12.9653 15.677 14.532C17.108 15.194 18.1564 16.9352 18.1564 19.0935C18.1564 23.4111 16.2365 25.5 9.67196 25.5H0V1.12628H8.38012ZM9.21781 20.5561C10.8943 20.5561 11.732 20.3817 11.732 18.7456C11.732 17.1096 10.9638 16.8658 9.28736 16.8658H5.97029V20.5572H9.21781V20.5561ZM8.93858 11.8505C10.615 11.8505 11.4527 11.6414 11.4527 9.48308C11.4527 7.32479 10.615 7.11569 8.93858 7.11569H5.99031V11.8515H8.93858V11.8505Z" fill="#424242"/>
<path d="M26.3974 1.12628V25.5H20.4619V1.12628H26.3974Z" fill="#424242"/>
<path d="M48.4641 1.12628V25.5H41.4602C41.4865 25.1207 41.5002 24.7382 41.5002 24.3526C41.5002 19.456 39.3327 15.0637 35.9019 12.0785L35.8945 12.0596V12.0711C35.8945 12.0711 35.8913 12.068 35.8892 12.0669C34.9588 14.1149 34.4404 16.3888 34.4404 18.7835C34.4404 21.1782 34.9588 23.4531 35.8903 25.5H29.8884V1.12628H36.9419L42.4591 14.4627V1.12628H48.4641Z" fill="#424242"/>
<path d="M57.9622 1.12628V19.5106H67.8439V25.5H51.9572V1.12628H57.9622Z" fill="#F83D48"/>
<path d="M86.9433 25.5H80.9383V20.3817H75.8405V25.5H69.8354V9.55241C69.8354 5.16543 70.5329 0.5 78.3894 0.5C86.2458 0.5 86.9433 5.16543 86.9433 9.55241V25.5ZM80.9383 9.55241C80.9383 7.88063 80.6938 7.04527 78.3894 7.04527C76.0849 7.04527 75.8405 7.88063 75.8405 9.55241V14.3576H80.9383V9.55241Z" fill="#F83D48"/>
<path d="M97.3139 1.12628L102.831 14.4627V1.12628H108.837V25.5H101.784L96.2665 12.0596V25.5H90.2614V1.12628H97.3139Z" fill="#F83D48"/>
<path d="M121.162 1.12628C127.727 1.12628 129.891 3.77318 129.891 9.48308V17.1085C129.891 22.8195 127.727 25.5 121.162 25.5H112.328V1.12628H121.162ZM121.267 19.5106C122.943 19.5106 123.781 19.2322 123.781 17.1432V9.48308C123.781 7.32479 122.943 7.11569 121.267 7.11569H118.333V19.5117H121.267V19.5106Z" fill="#F83D48"/>
</svg>

<svg xmlns="http://www.w3.org/2000/svg" fill="none" viewBox="0 0 130 26"><path fill="#424242" d="M8.38 1.126c6.565 0 9.078 2.647 9.078 8.357 0 1.184-.349 3.482-1.781 5.049 1.431.662 2.48 2.403 2.48 4.561 0 4.318-1.92 6.407-8.485 6.407H0V1.126h8.38Zm.838 19.43c1.676 0 2.514-.174 2.514-1.81 0-1.636-.768-1.88-2.445-1.88H5.97v3.691h3.248Zm-.28-8.706c1.677 0 2.515-.209 2.515-2.367s-.838-2.367-2.514-2.367H5.99v4.736H8.94v-.002ZM26.397 1.126V25.5h-5.935V1.126h5.935ZM48.464 1.126V25.5H41.46c.026-.38.04-.762.04-1.147 0-4.897-2.167-9.29-5.598-12.275l-.008-.018v.011l-.005-.004a16.197 16.197 0 0 0-1.449 6.716c0 2.395.519 4.67 1.45 6.717h-6.002V1.126h7.054l5.517 13.337V1.126h6.005Z"/><path fill="#F83D48" d="M57.962 1.126v18.385h9.882V25.5H51.957V1.126h6.005ZM86.943 25.5h-6.005v-5.118h-5.097V25.5h-6.006V9.552c0-4.387.698-9.052 8.554-9.052 7.857 0 8.554 4.665 8.554 9.052V25.5ZM80.938 9.552c0-1.671-.244-2.507-2.549-2.507-2.304 0-2.548.836-2.548 2.507v4.806h5.097V9.552ZM97.314 1.126l5.517 13.337V1.126h6.006V25.5h-7.053l-5.518-13.44V25.5h-6.005V1.126h7.053ZM121.162 1.126c6.565 0 8.729 2.647 8.729 8.357v7.625c0 5.712-2.164 8.392-8.729 8.392h-8.834V1.126h8.834Zm.105 18.385c1.676 0 2.514-.279 2.514-2.368v-7.66c0-2.158-.838-2.367-2.514-2.367h-2.934v12.396h2.934v-.001Z"/></svg>
